packages/core/src/svgs/dip.svg

<svg width="24" height="24" viewBox="0 0 24 24" fill="none" xmlns="http://www.w3.org/2000/svg">
<g clip-path="url(#clip0_31_9230)">
<path d="M0 0H24V24H0V0Z" fill="#F0F3FA"/>
<path d="M18.7845 11.0998L18.7416 11.0612L18.5359 10.8726L18.0002 10.3926L17.5459 9.98122L17.4688 9.90836L17.1731 9.95979L14.3531 10.2512L12.7374 8.02265C12.6941 7.96844 12.6336 7.93064 12.5659 7.9155L6.82307 6.97265L6.0945 6.85693L6.48878 7.3755L6.77164 7.74836H5.14307L5.89307 8.45122L10.3931 12.6898L9.42878 17.3055L9.10307 18.8569L9.16307 18.7626L10.1916 17.1341L11.5588 14.9741L15.7031 12.9384C15.8531 12.8784 15.9774 12.7712 16.0545 12.6341L16.8345 11.5712H19.2859L18.7845 11.0998ZM6.45878 8.27122H7.16592L8.65735 10.3326L6.45878 8.27122ZM7.28164 7.58122L12.1631 8.37408L10.6202 12.1241L7.27735 7.58122H7.28164ZM10.1488 16.2941L10.7359 13.5641L11.1345 14.7041L10.1488 16.2898V16.2941ZM11.5502 14.4041L11.0359 12.8612H14.6788L11.5502 14.4041ZM11.0659 12.4284L12.5831 8.69551L15.2402 12.4284H11.0659ZM15.7459 12.1712L14.6959 10.7312L16.8559 10.5298L15.7416 12.1755L15.7459 12.1712ZM17.1602 11.1426L17.4345 10.5726L18.0988 11.1426H17.1559H17.1602Z" fill="#5081F4"/>
</g>
<defs>
<clipPath id="clip0_31_9230">
<rect width="24" height="24" fill="white"/>
</clipPath>
</defs>
</svg>

<svg xmlns="http://www.w3.org/2000/svg" width="24" height="24" fill="none" viewBox="0 0 24 24"><g clip-path="url(#a)"><path fill="#F0F3FA" d="M0 0h24v24H0z"/><path fill="#5081F4" d="m18.785 11.1-.043-.039-.206-.188-.536-.48-.454-.412-.077-.073-.296.052-2.82.291-1.616-2.228a.3.3 0 0 0-.171-.107l-5.743-.943-.729-.116.395.518.283.373H5.143l.75.703 4.5 4.239-.964 4.615-.326 1.552.06-.094 1.029-1.629 1.367-2.16 4.144-2.036a.7.7 0 0 0 .352-.304l.78-1.063h2.45zM6.459 8.27h.707l1.491 2.062zm.823-.69 4.881.793-1.543 3.75-3.343-4.543zm2.867 8.713.587-2.73.398 1.14-.985 1.586zm1.401-1.89-.514-1.543h3.643zm-.484-1.976 1.517-3.732 2.657 3.732zm4.68-.257-1.05-1.44 2.16-.201-1.114 1.646zm1.414-1.028.274-.57.665.57h-.943z"/></g><defs><clipPath id="a"><path fill="#fff" d="M0 0h24v24H0z"/></clipPath></defs></svg>
